svg/nature/paw_line.svg

<?xml version="1.0" encoding="UTF-8"?>
<svg width="24px" height="24px" viewBox="0 0 24 24" version="1.1" xmlns="http://www.w3.org/2000/svg" xmlns:xlink="http://www.w3.org/1999/xlink">
    <title>paw_line</title>
    <g id="Icon" stroke="none" stroke-width="1" fill="none" fill-rule="evenodd">
        <g id="Nature" transform="translate(-528.000000, -98.000000)" fill-rule="nonzero">
            <g id="paw_line" transform="translate(528.000000, 98.000000)">
                <path d="M24,0 L24,24 L0,24 L0,0 L24,0 Z M12.5935,23.2578 L12.5819,23.2595 L12.5109,23.295 L12.4919,23.2987 L12.4767,23.295 L12.4057,23.2595 C12.3958,23.2564 12.387,23.259 12.3821,23.2649 L12.378,23.2758 L12.3609,23.7031 L12.3659,23.7235 L12.3769,23.7357 L12.4805,23.8097 L12.4953,23.8136 L12.5071,23.8097 L12.6107,23.7357 L12.6233,23.7197 L12.6267,23.7031 L12.6096,23.2758 C12.6076,23.2657 12.601,23.2593 12.5935,23.2578 Z M12.8584,23.1453 L12.8445,23.1473 L12.6598,23.2397 L12.6499,23.2499 L12.6472,23.2611 L12.6651,23.6906 L12.6699,23.7034 L12.6784,23.7105 L12.8793,23.8032 C12.8914,23.8069 12.9022,23.803 12.9078,23.7952 L12.9118,23.7812 L12.8777,23.1665 C12.8753,23.1546 12.8674,23.147 12.8584,23.1453 Z M12.143,23.1473 C12.1332,23.1424 12.1222,23.1453 12.1156,23.1526 L12.1099,23.1665 L12.0758,23.7812 C12.0751,23.7927 12.0828,23.8019 12.0926,23.8046 L12.1083,23.8032 L12.3092,23.7105 L12.3186,23.7024 L12.3225,23.6906 L12.3404,23.2611 L12.3372,23.2485 L12.3278,23.2397 L12.143,23.1473 Z" id="MingCute"></path>
                <path d="M5.4025,6.55087 C5.1691,6.05033 4.57412,5.83377 4.07358,6.06717 C3.57304,6.30058 3.35648,6.89556 3.58988,7.3961 L5.4025,6.55087 Z M20.4101,7.39238 C20.6435,6.89185 20.427,6.29686 19.9264,6.06346 C19.4259,5.83005 18.8309,6.0466 18.5975,6.54714 L20.4101,7.39238 Z M13,3.99997 C12.9999,3.44768 12.5522,2.99998 11.9999,3 C11.4476,3.00002 10.9999,3.44775 11,4.00003 L13,3.99997 Z M17,17.2778 C17,17.426 16.8407,17.8588 15.834,18.3095 C14.9075,18.7243 13.5542,19 12,19 L12,21 C13.7595,21 15.4062,20.6924 16.6513,20.1349 C17.8162,19.6134 19,18.6851 19,17.2778 L17,17.2778 Z M12,19 C10.4458,19 9.09246,18.7243 8.16598,18.3095 C7.15933,17.8588 7,17.426 7,17.2778 L5,17.2778 C5,18.6851 6.18381,19.6134 7.34873,20.1349 C8.59383,20.6924 10.2404,21 12,21 L12,19 Z M7,17.2778 C7,16.7491 7.40503,15.9401 8.36366,15.2093 C9.28597,14.5061 10.5754,14 12,14 L12,12 C10.1109,12 8.40031,12.6663 7.15106,13.6188 C5.9381,14.5436 5,15.8735 5,17.2778 L7,17.2778 Z M12,14 C13.4246,14 14.714,14.5061 15.6363,15.2093 C16.595,15.9401 17,16.7491 17,17.2778 L19,17.2778 C19,15.8735 18.0619,14.5436 16.8489,13.6188 C15.5997,12.6663 13.8891,12 12,12 L12,14 Z M6.11154,9.25452 C6.26235,9.57793 6.28316,9.88221 6.23873,10.0936 C6.19438,10.3046 6.10719,10.3599 6.08101,10.3721 L6.92625,12.1848 C7.65088,11.8469 8.05421,11.1794 8.19597,10.505 C8.33765,9.8309 8.24017,9.08696 7.92416,8.40929 L6.11154,9.25452 Z M6.08101,10.3721 C6.05483,10.3843 5.95641,10.4156 5.76625,10.3139 C5.57576,10.2121 5.35604,10.0005 5.20524,9.67714 L3.39262,10.5224 C3.70863,11.2001 4.21586,11.7529 4.8233,12.0777 C5.43109,12.4026 6.20162,12.5227 6.92625,12.1848 L6.08101,10.3721 Z M5.20524,9.67714 C5.05443,9.35374 5.03362,9.04946 5.07805,8.83806 C5.1224,8.62704 5.20959,8.57173 5.23577,8.55952 L4.39054,6.74691 C3.66591,7.08481 3.26258,7.75223 3.12082,8.42668 C2.97914,9.10076 3.07662,9.8447 3.39262,10.5224 L5.20524,9.67714 Z M5.23577,8.55952 C5.26195,8.54732 5.36037,8.51608 5.55053,8.61774 C5.74103,8.71959 5.96074,8.93112 6.11154,9.25452 L7.92416,8.40929 C7.60815,7.73161 7.10092,7.17874 6.49348,6.85399 C5.88569,6.52905 5.11517,6.40901 4.39054,6.74691 L5.23577,8.55952 Z M5.71946,7.2306 L5.4025,6.55087 L3.58988,7.3961 L3.90684,8.07583 L5.71946,7.2306 Z M18.7947,9.67342 C18.6439,9.99682 18.4242,10.2083 18.2337,10.3102 C18.0436,10.4119 17.9451,10.3806 17.919,10.3684 L17.0737,12.181 C17.7984,12.5189 18.5689,12.3989 19.1767,12.074 C19.7841,11.7492 20.2913,11.1963 20.6074,10.5187 L18.7947,9.67342 Z M17.919,10.3684 C17.8928,10.3562 17.8056,10.3009 17.7612,10.0899 C17.7168,9.87848 17.7376,9.5742 17.8884,9.2508 L16.0758,8.40556 C15.7598,9.08324 15.6623,9.82718 15.804,10.5013 C15.9458,11.1757 16.3491,11.8431 17.0737,12.181 L17.919,10.3684 Z M17.8884,9.2508 C18.0392,8.92739 18.259,8.71586 18.4494,8.61402 C18.6396,8.51235 18.738,8.54359 18.7642,8.5558 L19.6094,6.74318 C18.8848,6.40528 18.1143,6.52532 17.5065,6.85026 C16.8991,7.17502 16.3918,7.72789 16.0758,8.40556 L17.8884,9.2508 Z M18.7642,8.5558 C18.7904,8.56801 18.8776,8.62332 18.9219,8.83434 C18.9664,9.04573 18.9455,9.35001 18.7947,9.67342 L20.6074,10.5187 C20.9234,9.84098 21.0208,9.09704 20.8792,8.42296 C20.7374,7.7485 20.3341,7.08108 19.6094,6.74318 L18.7642,8.5558 Z M20.0931,8.07211 L20.4101,7.39238 L18.5975,6.54714 L18.2805,7.22687 L20.0931,8.07211 Z M13,7.5 C13,8.54819 12.3556,9 12,9 L12,11 C13.8535,11 15,9.21323 15,7.5 L13,7.5 Z M12,9 C11.6444,9 11,8.54819 11,7.5 L9,7.5 C9,9.21323 10.1464,11 12,11 L12,9 Z M11,7.5 C11,6.45181 11.6444,6 12,6 L12,4 C10.1464,4 9,5.78677 9,7.5 L11,7.5 Z M12,6 C12.3556,6 13,6.45181 13,7.5 L15,7.5 C15,5.78677 13.8535,4 12,4 L12,6 Z M13,4.99997 L13,3.99997 L11,4.00003 L11,5.00003 L13,4.99997 Z" id="形状" fill="#09244B"></path>
            </g>
        </g>
    </g>
</svg>

<svg xmlns="http://www.w3.org/2000/svg" width="24" height="24"><g fill="none" fill-rule="nonzero"><path d="M24 0v24H0V0h24ZM12.594 23.258l-.012.002-.071.035-.02.004-.014-.004-.071-.036c-.01-.003-.019 0-.024.006l-.004.01-.017.428.005.02.01.013.104.074.015.004.012-.004.104-.074.012-.016.004-.017-.017-.427c-.002-.01-.009-.017-.016-.018Zm.264-.113-.014.002-.184.093-.01.01-.003.011.018.43.005.012.008.008.201.092c.012.004.023 0 .029-.008l.004-.014-.034-.614c-.003-.012-.01-.02-.02-.022Zm-.715.002a.023.023 0 0 0-.027.006l-.006.014-.034.614c0 .012.007.02.017.024l.015-.002.201-.093.01-.008.003-.011.018-.43-.003-.012-.01-.01-.184-.092Z"/><path fill="#09244B" d="M5.403 6.55a1 1 0 1 0-1.813.846l1.813-.845Zm15.007.842a1 1 0 1 0-1.812-.845l1.812.845ZM13 4a1 1 0 0 0-2 0h2Zm4 13.278c0 .148-.16.58-1.166 1.032-.926.414-2.28.69-3.834.69v2c1.76 0 3.406-.308 4.651-.865 1.165-.522 2.349-1.45 2.349-2.857h-2ZM12 19c-1.554 0-2.908-.276-3.834-.69C7.159 17.859 7 17.426 7 17.278H5c0 1.407 1.184 2.335 2.349 2.857C8.594 20.692 10.24 21 12 21v-2Zm-5-1.722c0-.529.405-1.338 1.364-2.069A6.069 6.069 0 0 1 12 14v-2c-1.89 0-3.6.666-4.849 1.619C5.938 14.544 5 15.874 5 17.278h2ZM12 14c1.425 0 2.714.506 3.636 1.21.959.73 1.364 1.54 1.364 2.068h2c0-1.404-.938-2.734-2.151-3.66A8.068 8.068 0 0 0 12 12v2ZM6.112 9.255c.15.323.171.627.127.839-.045.21-.132.266-.158.278l.845 1.813c.725-.338 1.128-1.006 1.27-1.68.142-.674.044-1.418-.272-2.096l-1.812.846Zm-.031 1.117c-.026.012-.125.044-.315-.058-.19-.102-.41-.313-.56-.637l-1.813.845c.316.678.823 1.23 1.43 1.556.608.325 1.379.445 2.103.107l-.845-1.813Zm-.876-.695c-.15-.323-.171-.628-.127-.839.044-.211.132-.266.158-.278L4.39 6.747c-.725.338-1.128 1.005-1.27 1.68-.142.674-.044 1.418.272 2.095l1.812-.845Zm.03-1.117c.027-.013.125-.044.316.058.19.102.41.313.56.637l1.813-.846c-.316-.677-.823-1.23-1.43-1.555-.608-.325-1.379-.445-2.103-.107l.845 1.813Zm.484-1.33-.317-.68-1.812.846.317.68 1.812-.845Zm13.076 2.443c-.151.324-.37.535-.561.637-.19.102-.289.07-.315.058l-.845 1.813c.724.338 1.495.218 2.103-.107.607-.325 1.114-.878 1.43-1.555l-1.812-.846Zm-.876.695c-.026-.012-.113-.067-.158-.278-.044-.212-.023-.516.127-.84l-1.812-.844c-.316.677-.414 1.421-.272 2.095.142.675.545 1.342 1.27 1.68l.845-1.813Zm-.03-1.117c.15-.324.37-.535.56-.637.19-.102.289-.07.315-.058l.845-1.813c-.724-.338-1.495-.218-2.103.107-.607.325-1.114.878-1.43 1.556l1.812.845Zm.875-.695c.026.012.114.067.158.278.044.212.023.516-.127.84l1.812.845c.316-.678.414-1.422.272-2.096-.142-.675-.545-1.342-1.27-1.68l-.845 1.813Zm1.33-.484.316-.68-1.812-.845-.317.68 1.812.845ZM13 7.5c0 1.048-.644 1.5-1 1.5v2c1.854 0 3-1.787 3-3.5h-2ZM12 9c-.356 0-1-.452-1-1.5H9c0 1.713 1.146 3.5 3 3.5V9Zm-1-1.5c0-1.048.644-1.5 1-1.5V4c-1.854 0-3 1.787-3 3.5h2ZM12 6c.356 0 1 .452 1 1.5h2C15 5.787 13.854 4 12 4v2Zm1-1V4h-2v1h2Z"/></g></svg>
